!!! OTL: Berkowitz326
!!! Chapter: 1
!!! Section: III
!!! Page: 79
!!! Mode: 
!!! Encoder: DJB
**kern
*staff1
*I"Piano
=1-
*clefC4
*k[b-e-a-]
*c:
*met(c)
*M4/4
4r
4r
4r
8r
16E-/LL
16F/JJ
=2
8G/L
8E-/
8BBn/
8D/J
4.C/
16G\LL
16B-\JJ
=3
8A-/L
8F/
8En/
8G/J
4.F/
8A-\
=4
8G/L
8D/J
8F/L
16E-/L
16D/JJ
16C/LL
16D/
16F/
16B-/JJ
8G/L
16E-/L
16F/JJ
=5
8G/L
8C/
8D/
8BBn/J
8A-/L
8F/J
8G/L
16C/L
16D/JJ
=6
!!linebreak:original
8E-/L
8C/
8D/
8BBn/J
2r
=7
8C/
8r
4r
2r
==
*-
